papirus/16x16/mimetypes/gnome-mime-application-x-referencer.svg

<?xml version="1.0" encoding="UTF-8" standalone="no"?>
<svg
   xmlns:dc="http://purl.org/dc/elements/1.1/"
   xmlns:cc="http://creativecommons.org/ns#"
   xmlns:rdf="http://www.w3.org/1999/02/22-rdf-syntax-ns#"
   xmlns:svg="http://www.w3.org/2000/svg"
   xmlns="http://www.w3.org/2000/svg"
   xmlns:sodipodi="http://sodipodi.sourceforge.net/DTD/sodipodi-0.dtd"
   xmlns:inkscape="http://www.inkscape.org/namespaces/inkscape"
   id="svg2"
   height="16px"
   width="16px"
   version="1.1"
   viewBox="0 0 16 16"
   inkscape:version="0.91 r13725"
   sodipodi:docname="gnome-mime-application-x-referencer.svg">
  <defs
     id="defs11" />
  <sodipodi:namedview
     pagecolor="#ffffff"
     bordercolor="#666666"
     borderopacity="1"
     objecttolerance="10"
     gridtolerance="10"
     guidetolerance="10"
     inkscape:pageopacity="0"
     inkscape:pageshadow="2"
     inkscape:window-width="778"
     inkscape:window-height="480"
     id="namedview9"
     showgrid="false"
     inkscape:zoom="14.75"
     inkscape:cx="8"
     inkscape:cy="8"
     inkscape:window-x="75"
     inkscape:window-y="34"
     inkscape:window-maximized="0"
     inkscape:current-layer="svg2" />
  <metadata
     id="metadata17">
    <rdf:RDF>
      <cc:Work
         rdf:about="">
        <dc:format>image/svg+xml</dc:format>
        <dc:type
           rdf:resource="http://purl.org/dc/dcmitype/StillImage" />
        <dc:title></dc:title>
      </cc:Work>
    </rdf:RDF>
  </metadata>
  <path
     style="fill:#ebe8d7"
     inkscape:connector-curvature="0"
     d="M 2.75,1 C 2.33276,1 2,1.33276 2,1.75 l 0,13.5 C 2,15.667192 2.332808,16 2.75,16 l 10.5,0 C 13.6676,16 14,15.6676 14,15.25 L 14,5.5 9.875,5.125 9.5,1 Z"
     id="path5" />
  <path
     style="fill:#f8f8f0"
     inkscape:connector-curvature="0"
     d="m 9.5,1 0,3.75 c 0,0.41256 0.33744,0.75 0.75,0.75 l 3.75,0 z"
     id="path7" />
  <path
     style="fill:#ffffff;fill-opacity:0.2"
     inkscape:connector-curvature="0"
     d="M 2.75,1 C 2.33276,1 2,1.33276 2,1.75 l 0,0.6 C 2,1.93276 2.33276,1.6 2.75,1.6 l 6.75,0 0,-0.6 z"
     id="path11" />
  <path
     style="opacity:0.5;fill:#000000;fill-opacity:1;fill-rule:evenodd"
     inkscape:connector-curvature="0"
     d="M 7.5528615,6.0223985 C 5.5576615,6.2436121 4,7.9410607 4,9.9991971 4,12.206409 5.7932308,14 8,14 c 2.206769,0 4,-1.793591 4,-4.0008029 0,-2.0292076 -1.514462,-3.7026513 -3.4663385,-3.9623958 0,0 -0.5480738,-0.07213 -0.9807753,-0.014427 z m 0.1826954,0.5385696 0,1.3512868 C 7.3510646,7.8978518 6.9856492,7.8545205 6.6490338,7.7919846 6.7019569,7.6718374 6.75488,7.561169 6.8126031,7.4554247 7.0769723,6.9745896 7.3990646,6.6716365 7.73568,6.5609681 Z m 0.5673846,0.024128 c 0.0336,0.0048 0.062523,0.0096 0.091323,0.014403 C 8.6971568,6.7293713 8.9856489,7.0177985 9.226018,7.4554248 9.283738,7.5563684 9.336542,7.6670365 9.389465,7.7871837 9.052972,7.8497187 8.6875568,7.8930512 8.3029414,7.9074541 Z M 6.5481108,6.811111 C 6.4663877,6.9264572 6.3846646,7.0467276 6.3125415,7.1764767 6.2308185,7.3255528 6.1538954,7.4890318 6.0865723,7.6574348 5.9039262,7.6045014 5.7307569,7.5419654 5.5721108,7.4746289 5.8557662,7.2005308 6.1874954,6.9793416 6.5480738,6.8110371 Z M 9.586634,6.9457595 c 0.336492,0.1057444 0.596061,0.322034 0.836554,0.5288448 C 10.278942,7.5371393 10.120295,7.5948746 9.947126,7.6476851 9.879806,7.4842062 9.807803,7.3255282 9.725957,7.1764521 9.682757,7.0947131 9.634637,7.0225751 9.586634,6.9456364 Z M 5.2116185,7.8833017 c 0.00481,0.024043 -0.00961,-0.028853 0,-0.00481 0.2067323,0.096173 0.4471138,0.2500439 0.6923077,0.3221814 C 5.77888,8.6479013 5.7019569,9.1384613 5.6779569,9.6578272 l -1.1586584,0 C 4.5818215,8.9941863 4.8317908,8.38828 5.2116062,7.8833171 Z m 5.5768615,0.00481 c 0.379803,0.5001004 0.629809,1.1059944 0.692308,1.769586 l -1.120197,0 c -0.02388,-0.5240436 -0.1008,-1.0194047 -0.225723,-1.4666329 0.225969,-0.072014 0.456123,-0.2066877 0.649354,-0.298029 0.0096,-0.019234 0,0.014427 0.0096,-0.00481 z M 9.576418,8.330539 c 0.115447,0.3992185 0.18757,0.8511247 0.21157,1.3272818 l -1.4855388,0 0,-1.1781196 C 8.7543877,8.4651752 9.182203,8.4122412 9.576418,8.3305021 Z m -3.1202457,0.00961 c 0.39904,0.076938 0.8269292,0.125022 1.2788923,0.1394496 l 0,1.1781196 -1.4855384,0 C 6.2736492,9.1816846 6.3456492,8.7393804 6.4562954,8.3401618 Z m -1.9469538,1.889857 1.1682707,0 c 0.024038,0.528956 0.1057699,1.033856 0.2355816,1.490638 -0.2596185,0.03366 -0.70192,0.293326 -0.721157,0.307753 -0.4519384,-0.547802 -0.6299076,-1.047594 -0.6827076,-1.8027 z m 1.7404307,0 1.4855385,0 0,1.211787 C 7.2880738,11.456214 6.8601846,11.504306 6.4660185,11.581244 6.3505723,11.17747 6.2736492,10.715838 6.2495262,10.230203 Z m 2.0529231,0 1.4855387,0 c -0.02412,0.49056 -0.101046,0.95219 -0.221293,1.360888 -0.394215,-0.08124 -0.8172303,-0.129257 -1.2643688,-0.148953 z m 2.0577227,0 1.124997,0 c -0.04327,0.687633 -0.245194,1.283949 -0.634609,1.808117 -0.182695,-0.110595 -0.514425,-0.230816 -0.725957,-0.307754 0.129809,-0.456819 0.211545,-0.966545 0.235582,-1.500363 z m -2.6249842,1.783988 0,1.307955 C 7.3985723,13.209927 7.07648,12.912021 6.8121108,12.431925 6.7591877,12.334673 6.7110646,12.233731 6.6630646,12.127864 6.9996062,12.065351 7.3553723,12.026879 7.7351754,12.012456 Z m 0.5673107,0 c 0.3798031,0.01442 0.7355815,0.05769 1.0673105,0.120222 -0.04327,0.105794 -0.09134,0.20196 -0.144234,0.298139 -0.264418,0.480872 -0.5865349,0.779 -0.9230765,0.889607 z m -2.2019692,0.250044 c 0.0625,0.153877 0.1346215,0.302942 0.2115446,0.442404 0.1057699,0.197159 0.2307693,0.375077 0.3701908,0.533755 C 6.2448862,13.062281 5.8506585,12.802611 5.5189292,12.470815 5.6968123,12.393877 5.88912,12.321752 6.1006646,12.264041 Z m 3.8317537,0.0096 c 0.19712,0.05769 0.379803,0.125023 0.548074,0.19716 -0.312505,0.317369 -0.687495,0.567425 -1.10096,0.745344 0.129809,-0.153878 0.245194,-0.322181 0.346154,-0.509715 0.07692,-0.134649 0.144234,-0.283713 0.206732,-0.432776 z"
     id="path7-3" />
</svg>

<?xml version="1.0" encoding="UTF-8" standalone="no"?>
<svg id="svg2" xmlns:rdf="http://www.w3.org/1999/02/22-rdf-syntax-ns#" xmlns="http://www.w3.org/2000/svg" height="16px" width="16px" version="1.1" xmlns:cc="http://creativecommons.org/ns#" viewBox="0 0 16 16" xmlns:dc="http://purl.org/dc/elements/1.1/">
 <metadata id="metadata17">
  <rdf:RDF>
   <cc:Work rdf:about="">
    <dc:format>image/svg+xml</dc:format>
    <dc:type rdf:resource="http://purl.org/dc/dcmitype/StillImage"/>
    <dc:title/>
   </cc:Work>
  </rdf:RDF>
 </metadata>
 <path id="path5" fill="#ccc" d="m2.75 1c-0.4172 0-0.75 0.3328-0.75 0.75v13.5c0 0.417 0.3328 0.75 0.75 0.75h10.5c0.418 0 0.75-0.332 0.75-0.75v-9.75l-4.125-0.375-0.375-4.125z"/>
 <path id="path7" fill="#f8f8f0" d="m9.5 1v3.75c0 0.41256 0.33744 0.75 0.75 0.75h3.75z"/>
 <path id="path11" fill-opacity=".2" fill="#fff" d="m2.75 1c-0.4172 0-0.75 0.3328-0.75 0.75v0.6c0-0.4172 0.3328-0.75 0.75-0.75h6.75v-0.6z"/>
 <path id="path7-3" opacity=".5" d="m7.5529 6.0224c-1.9952 0.2212-3.5529 1.9187-3.5529 3.9768 0 2.2068 1.7932 4.0008 4 4.0008s4-1.7936 4-4.0008c0-2.0292-1.5145-3.7027-3.4663-3.9624 0 0-0.54807-0.07213-0.98078-0.014427zm0.1827 0.53857v1.3513c-0.3845-0.0144-0.75-0.0578-1.0866-0.1203 0.053-0.1202 0.1059-0.2308 0.1636-0.3366 0.2644-0.4808 0.5865-0.7838 0.9231-0.8944zm0.56738 0.024128c0.0336 0.0048 0.062523 0.0096 0.091323 0.014403 0.3029 0.1299 0.5913 0.4183 0.8317 0.8559 0.0577 0.101 0.1105 0.2116 0.1635 0.3318-0.3365 0.0625-0.7019 0.1059-1.0866 0.1203zm-1.7549 0.226c-0.0817 0.1154-0.1634 0.2356-0.2356 0.3654-0.0817 0.1491-0.1586 0.3125-0.2259 0.4809-0.1827-0.0529-0.3558-0.1154-0.5145-0.1828 0.2837-0.2741 0.6154-0.4953 0.976-0.6636zm3.0385 0.1347c0.33649 0.10574 0.59606 0.32203 0.83655 0.52884-0.144 0.0625-0.303 0.1203-0.4759 0.1731-0.0673-0.1635-0.1393-0.3222-0.2211-0.4712-0.0432-0.0818-0.0914-0.1539-0.1394-0.2309zm-4.375 0.9375c0.00481 0.024043-0.00961-0.028853 0-0.00481 0.20673 0.096173 0.44711 0.25004 0.69231 0.32218-0.125 0.4472-0.2019 0.9378-0.2259 1.4571h-1.1587c0.0625-0.6636 0.3125-1.2695 0.6923-1.7745zm5.5769 0.00481c0.3798 0.5001 0.62981 1.106 0.69231 1.7696h-1.1202c-0.02388-0.52404-0.1008-1.0194-0.22572-1.4666 0.22597-0.072014 0.45612-0.20669 0.64935-0.29803 0.0096-0.019234 0 0.014427 0.0096-0.00481zm-1.2116 0.4424c0.11545 0.39922 0.18757 0.85112 0.21157 1.3273h-1.4855v-1.1781c0.4519-0.0145 0.8797-0.0675 1.2739-0.1492zm-3.1202 0.00961c0.39904 0.076938 0.82693 0.12502 1.2789 0.13945v1.1781h-1.4855c0.024-0.476 0.096-0.9183 0.2067-1.3175zm-1.947 1.8899h1.1683c0.024038 0.52896 0.10577 1.0339 0.23558 1.4906-0.25962 0.03366-0.70192 0.29333-0.72116 0.30775-0.45194-0.5478-0.62991-1.0476-0.68271-1.8027zm1.7404 0h1.4855v1.2118c-0.447 0.014-0.8749 0.062-1.2691 0.139-0.1154-0.404-0.1924-0.865-0.2165-1.351zm2.0529 0h1.4855c-0.02412 0.49056-0.10105 0.95219-0.22129 1.3609-0.39422-0.08124-0.81723-0.12926-1.2644-0.14895zm2.0577 0h1.125c-0.04327 0.68763-0.24519 1.2839-0.63461 1.8081-0.1827-0.1106-0.51442-0.23082-0.72596-0.30775 0.12981-0.45682 0.21154-0.96654 0.23558-1.5004zm-2.625 1.784v1.308c-0.3364-0.112-0.6585-0.41-0.9229-0.89-0.0529-0.097-0.101-0.198-0.149-0.304 0.3365-0.063 0.6923-0.101 1.0721-0.116zm0.56731 0c0.3798 0.01442 0.73558 0.05769 1.0673 0.12022-0.04327 0.10579-0.09134 0.20196-0.14423 0.29814-0.26442 0.48087-0.58653 0.779-0.92308 0.88961zm-2.202 0.25004c0.0625 0.15388 0.13462 0.30294 0.21154 0.4424 0.10577 0.19716 0.23077 0.37508 0.37019 0.53376-0.4371-0.178-0.8313-0.437-1.1631-0.769 0.1779-0.077 0.3702-0.149 0.5818-0.207zm3.8318 0.0096c0.19712 0.05769 0.3798 0.12502 0.54807 0.19716-0.3125 0.31737-0.6875 0.56742-1.101 0.74534 0.12981-0.15388 0.24519-0.32218 0.34615-0.50972 0.07692-0.13465 0.14423-0.28371 0.20673-0.43278z" fill-rule="evenodd"/>
</svg>
